X: 1478
T: Nigâh-ı Mestine Canlar Dayanmaz
C: Hacı Ârif Bey
O: Turkey
F: http://compmusic.upf.edu/node/140
N: saba--sarki--devrihindi--nigah-i_mestine--haci_arif_bey
N: makam= saba
N: form= sarki
N: usul= devrihindi = 7/4
M: 7/4
L: 1/16
K: C _2/4B _3/4d  
Q: 1/4=108
%%MIDI tuningsystem comma53
B2 c4 cd cB AG AB  | c2 d4 ef ed cB c2  | \
w:  ARANAĞME  |   | 
f2 g4 ga gf ed ef  | 
w:   | 
a2 g2 f2 ef ed c4  | d4 c2 cB Ac B4  | \
w:   |   | 
AB ce dc cB BA A4  | 
w:   | 
B2 c4 cd cB AG AB  | c2 d4 ef ed cB c2  | \
w:  ARANAĞME  |   | 
f2 g4 ga gf ed ef  | 
w:   | 
a2 g2 f2 ef ed c4  | d4 c2 cB Ac B4  | \
w:   |   | 
AB ce dc cB BA A4  | 
w:   | 
B2 c4 d/c/d/e/ dc cd cB  | B2 c3d cB BA A2 z2  | 
w:  Ni gâh_ ı  *  *  *  *  *  mes  |  ti ne  *  can *  *  *  lar   | 
c2 d8 d3c  | c2 B2 (3edc c3G AB c2  | \
w:  da yan  |  *  *  *  *  *  maz   SAZ  | 
=d2 e3/2f/ ed ef ga gf ed  | 
w:  U yan *  *  *  maz  *  *  *  uy  | 
c2 d3/2e/ dc cB BA A4  | G2 c8 BA G2  | \
w:  ku dan  *  *  *  câ *  *  *  nân   |  u yan  | 
AB cd/c/ BA A3/2B/ c=d ed e2  | 
w:  u *  yan *  *  *  *  maz    | 
=d2 e3/2f/ ed ef ga gf ed  | c2 d3/2e/ dc cB BA A4  | 
w:  U yan *  *  *  maz  *  *  *  uy  |  ku dan  *  *  *  câ *  *  *  nân   | 
G2 c8 BA G2  | AB cd/c/ BA A3g ^fg a2  | \
w:  u yan  |  u *  yan *  *  *  *  maz   SAZ  | 
g2 a4 a/g/a/_1/4b/ ag ^3/4f^3/4e f2  | 
w:  Bu  nâz_ ü  *  *  *  *  *  iş  | 
^3/4e^3/4f g2 fe ag ^2/4f^e =d2 z2  | \
w:  ve *  den  *  *  as *  *  *  la   | 
=d2 e2 ^3/4f2 g3/2a/ g^2/4f e4  | \
w:  u san  | 
eg ^3/4fa gf (3ag^2/4f fe e2 z2  | 
w:  u *  san *  *  *  *  *  *  *  *  maz    | 
ec' c'_1/4b ba a_7/8b ag g_7/8a gf  | \
w:  Sa *  bah  *  *  *  ol *  *  *  du  | 
ef g_7/8a ag gf fe gf ed  | 
w:  ğu *  na  *  *  *  gû *  *  *  ya   | 
c2 d2 e2 gf ed c4  | B4 (3edc c3G AB c2  | \
w:  i nan  |  *  *  *  *  maz   SAZ  | 
=d2 e3/2f/ ed ef ga gf ed  | 
w:  U yan *  *  *  maz  *  *  *  uy  | 
c2 d3/2e/ dc cB BA A4  | G2 c8 BA G2  | \
w:  ku dan  *  *  *  câ *  *  *  nân   |  u yan  | 
AB cd/c/ BA A3/2B/ c=d ed e2  | 
w:  u *  yan *  *  *  *  maz    | 
=d2 e3/2f/ ed ef ga gf ed  | c2 d3/2e/ dc cB BA A4  | 
w:  U yan *  *  *  maz  *  *  *  uy  |  ku dan  *  *  *  câ *  *  *  nân   | 
G2 c8 BA G2  | AB cd/c/ BA A3G ^FG A2  | |


